svg/24/database--filled.svg

<svg width="24" height="24" viewBox="0 0 24 24" fill="currentColor" xmlns="http://www.w3.org/2000/svg"><path d="M18.9732 11.1991C17.1116 12.0265 14.6449 12.5 12 12.5C9.35508 12.5 6.88843 12.0265 5.02683 11.1991C4.27294 10.8641 3.5746 10.4516 3 9.95263V12C3 12.5248 3.23235 13.045 3.68508 13.5307C4.13737 14.016 4.8003 14.457 5.63604 14.8284C6.47177 15.1999 7.46392 15.4945 8.55585 15.6955C9.64778 15.8965 10.8181 16 12 16C13.1819 16 14.3522 15.8965 15.4442 15.6955C16.5361 15.4945 17.5282 15.1999 18.364 14.8284C19.1997 14.457 19.8626 14.016 20.3149 13.5307C20.7676 13.045 21 12.5248 21 12V9.95263C20.4254 10.4516 19.7271 10.8641 18.9732 11.1991Z"/><path d="M21 14.9508C20.4293 15.4475 19.7336 15.8612 18.9732 16.1991C18.0093 16.6275 16.9001 16.9527 15.7157 17.1707C14.5287 17.3893 13.2672 17.5 12 17.5C10.7328 17.5 9.47133 17.3893 8.28427 17.1707C7.09988 16.9527 5.99067 16.6275 5.02683 16.1991C4.26639 15.8612 3.57073 15.4475 3 14.9508V17C3 18.0573 3.94263 19.0758 5.63604 19.8284C7.32386 20.5786 9.61304 21 12 21C14.387 21 16.6761 20.5786 18.364 19.8284C20.0574 19.0758 21 18.0573 21 17V14.9508Z"/><path d="M12 3C7.02944 3 3 4.79086 3 7C3 9.20914 7.02944 11 12 11C16.9706 11 21 9.20914 21 7C21 4.79086 16.9706 3 12 3Z"/></svg>

<svg xmlns="http://www.w3.org/2000/svg" width="24" height="24" fill="currentColor" viewBox="0 0 24 24">
  <path d="M18.973 11.2c-1.861.827-4.328 1.3-6.973 1.3-2.645 0-5.112-.473-6.973-1.3-.754-.336-1.452-.748-2.027-1.247V12c0 .525.232 1.045.685 1.53.452.486 1.115.927 1.951 1.298.836.372 1.828.667 2.92.867A19.18 19.18 0 0 0 12 16a19.18 19.18 0 0 0 3.444-.305c1.092-.2 2.084-.495 2.92-.867.836-.371 1.499-.812 1.95-1.297.454-.486.686-1.006.686-1.531V9.953c-.575.499-1.273.911-2.027 1.246Z"/>
  <path d="M21 14.95c-.57.498-1.266.911-2.027 1.25-.964.428-2.073.753-3.257.97A20.67 20.67 0 0 1 12 17.5a20.67 20.67 0 0 1-3.716-.33c-1.184-.217-2.293-.543-3.257-.97-.76-.339-1.456-.752-2.027-1.25V17c0 1.057.943 2.076 2.636 2.828C7.324 20.578 9.613 21 12 21s4.676-.421 6.364-1.172C20.057 19.076 21 18.058 21 17v-2.05ZM12 3C7.03 3 3 4.79 3 7s4.03 4 9 4 9-1.79 9-4-4.03-4-9-4Z"/>
</svg>
